icon/pk/tumblr.svg

<svg viewBox="0 0 48 48" fill="none" xmlns="http://www.w3.org/2000/svg" height="1em" width="1em">
  <path d="M39 6H9C7.34315 6 6 7.34315 6 9V39C6 40.6569 7.34315 42 9 42H39C40.6569 42 42 40.6569 42 39V9C42 7.34315 40.6569 6 39 6Z" fill="#2F88FF" stroke="black" stroke-width="4"/>
  <path d="M15 22V17H20V14L26 12V17H31V22H26V29C26 29 26 30.5 28 31C30 31.5 33 30 33 30L31 36H26C22.5 36 20 32.5 20 30V22H15Z" fill="white"/>
</svg>

<svg width="48" height="48" fill="none" xmlns="http://www.w3.org/2000/svg"><path d="M39 6H9a3 3 0 0 0-3 3v30a3 3 0 0 0 3 3h30a3 3 0 0 0 3-3V9a3 3 0 0 0-3-3Z" fill="#2F88FF" stroke="#000" stroke-width="4"/><path d="M15 22v-5h5v-3l6-2v5h5v5h-5v7s0 1.5 2 2 5-1 5-1l-2 6h-5c-3.5 0-6-3.5-6-6v-8h-5Z" fill="#fff"/></svg>
